svg/FoundationIcons/fi-photo.svg

<svg xmlns="http://www.w3.org/2000/svg" viewBox="0 0 100 100" enable-background="new 0 0 100 100"><g fill="#231f20"><path d="m93.19 18c0-2.47-2-4.472-4.472-4.472-.228 0-.447.034-.667.067v-.095h-76.81v.028c-2.47 0-4.472 2-4.472 4.472v.0001 63.998.0001.0001.499h.05c.252 2.231 2.123 3.972 4.421 3.972v.028h76.81v-.095c.219.033.438.067.667.067 2.299 0 4.17-1.74 4.422-3.972h.078v-64.5h-.027m-9.929 58.54h-10.861c-.038-.155-.092-.304-.166-.442l.018-.001-22.719-39.35-.009.005c-.5-1.027-1.544-1.74-2.764-1.74-1.251 0-2.324.749-2.807 1.821l-15.12 26.19-3.702-6.411-.005.003c-.264-.542-.814-.918-1.457-.918-.659 0-1.224.395-1.479.958l-5.46 9.457v-42.617h66.53v53.06"/><circle cx="68.12" cy="38.584" r="10.1"/></g></svg>

<?xml version="1.0" encoding="utf-8"?>
<!-- Generator: Adobe Illustrator 17.0.0, SVG Export Plug-In . SVG Version: 6.00 Build 0)  -->
<!DOCTYPE svg PUBLIC "-//W3C//DTD SVG 1.1//EN" "http://www.w3.org/Graphics/SVG/1.1/DTD/svg11.dtd">
<svg version="1.1" id="Layer_1" xmlns="http://www.w3.org/2000/svg" xmlns:xlink="http://www.w3.org/1999/xlink" x="0px" y="0px"
	 width="100px" height="100px" viewBox="0 0 100 100" enable-background="new 0 0 100 100" xml:space="preserve">
<g>
	<path fill="#231F20" d="M93.194,18c0-2.47-2.002-4.472-4.472-4.472c-0.228,0-0.447,0.034-0.667,0.067V13.5H11.25v0.028
		c-2.47,0-4.472,2.002-4.472,4.472l0,0.001v63.998l0,0.001l0,0.001V82.5h0.05c0.252,2.231,2.123,3.972,4.421,3.972V86.5h76.805
		v-0.095c0.219,0.033,0.438,0.067,0.667,0.067c2.299,0,4.17-1.74,4.422-3.972h0.078V18H93.194z M83.265,76.543H72.404
		c-0.038-0.155-0.092-0.304-0.166-0.442l0.018-0.01l-22.719-39.35l-0.009,0.005c-0.5-1.027-1.544-1.74-2.764-1.74
		c-1.251,0-2.324,0.749-2.807,1.821L28.838,63.013l-3.702-6.411l-0.005,0.003c-0.264-0.542-0.814-0.918-1.457-0.918
		c-0.659,0-1.224,0.395-1.479,0.958l-5.46,9.457V23.485h66.53V76.543z"/>
	<circle fill="#231F20" cx="68.122" cy="38.584" r="10.1"/>
</g>
</svg>
